svgs/sharp-regular/grid-5.svg

<svg xmlns="http://www.w3.org/2000/svg" viewBox="0 0 448 512"><!--! Font Awesome Pro 6.6.0 by @fontawesome - https://fontawesome.com License - https://fontawesome.com/license (Commercial License) Copyright 2024 Fonticons, Inc. --><path d="M0 32l64 0 0 64L0 96 0 32zm0 96l64 0 0 64L0 192l0-64zm64 96l0 64L0 288l0-64 64 0zM0 320l64 0 0 64L0 384l0-64zm64 96l0 64L0 480l0-64 64 0zM96 32l64 0 0 64L96 96l0-64zm64 96l0 64-64 0 0-64 64 0zM96 224l64 0 0 64-64 0 0-64zm64 96l0 64-64 0 0-64 64 0zM96 416l64 0 0 64-64 0 0-64zM256 32l0 64-64 0 0-64 64 0zm-64 96l64 0 0 64-64 0 0-64zm64 96l0 64-64 0 0-64 64 0zm-64 96l64 0 0 64-64 0 0-64zm64 96l0 64-64 0 0-64 64 0zM288 32l64 0 0 64-64 0 0-64zm64 96l0 64-64 0 0-64 64 0zm-64 96l64 0 0 64-64 0 0-64zm64 96l0 64-64 0 0-64 64 0zm-64 96l64 0 0 64-64 0 0-64zM448 32l0 64-64 0 0-64 64 0zm-64 96l64 0 0 64-64 0 0-64zm64 96l0 64-64 0 0-64 64 0zm-64 96l64 0 0 64-64 0 0-64zm64 96l0 64-64 0 0-64 64 0z"/></svg>

<svg xmlns="http://www.w3.org/2000/svg" viewBox="0 0 448 512"><!--! Font Awesome Pro 6.4.2 by @fontawesome - https://fontawesome.com License - https://fontawesome.com/license (Commercial License) Copyright 2023 Fonticons, Inc. --><path d="M0 32H64V96H0V32zm0 96H64v64H0V128zm64 96v64H0V224H64zM0 320H64v64H0V320zm64 96v64H0V416H64zM96 32h64V96H96V32zm64 96v64H96V128h64zM96 224h64v64H96V224zm64 96v64H96V320h64zM96 416h64v64H96V416zM256 32V96H192V32h64zm-64 96h64v64H192V128zm64 96v64H192V224h64zm-64 96h64v64H192V320zm64 96v64H192V416h64zM288 32h64V96H288V32zm64 96v64H288V128h64zm-64 96h64v64H288V224zm64 96v64H288V320h64zm-64 96h64v64H288V416zM448 32V96H384V32h64zm-64 96h64v64H384V128zm64 96v64H384V224h64zm-64 96h64v64H384V320zm64 96v64H384V416h64z"/></svg>
